X: 201
%
T: Gillie Calum
T: Gille Callum?
T: The Lad Malcolm
C:
O:Scotland
B:Keith Norman MacDonald : "The Skye collection of the best reels & strathspeys extant" : 1887
Z:Ralph Palmer
R:Strathspey
M:C
L:1/8
K:A
e |: AAc>e {/B}d2 B>=G | AAc>e {/B}d2 c>A | B>EB>e {/B}d2 B>=G | AAc>e {/c}d>B e2 :|
AAce {/f}=g2 B>G | AAc>e {/f}a2 {/d}c>A | {/g}a2 {/d}c>A =g2 B>G | AAc>e {/c}d>B e2 |
AAc>e {/f}=g2 (B>G) | AAc>e {/g}a>ba>f | {/f}=g>ag>e {/c}d>=gB>G | AAc>e {/B}d>B Te2 |]
W:Generally played as a Strathspey and Reel for the sword dance.


